svgs/regular/van-shuttle.svg

<svg xmlns="http://www.w3.org/2000/svg" viewBox="0 0 640 512"><!--! Font Awesome Pro 6.4.2 by @fontawesome - https://fontawesome.com License - https://fontawesome.com/license (Commercial License) Copyright 2023 Fonticons, Inc. --><path d="M48 96v96H176V80H64c-8.8 0-16 7.2-16 16zm0 144v80c0 8.8 7.2 16 16 16H76.8c16.6-28.7 47.6-48 83.2-48s66.6 19.3 83.2 48H396.8c16.6-28.7 47.6-48 83.2-48s66.6 19.3 83.2 48H576c8.8 0 16-7.2 16-16V240H360 200 48zm176-48H336V80H224V192zm160 0H564.1L471.3 82.8c-1.5-1.8-3.7-2.8-6.1-2.8H384V192zM640 320c0 35.3-28.7 64-64 64c0 53-43 96-96 96s-96-43-96-96H256c0 53-43 96-96 96s-96-43-96-96c-35.3 0-64-28.7-64-64V96C0 60.7 28.7 32 64 32H200 360 465.2c16.4 0 32 7.2 42.7 19.7L626.7 191.5c8.6 10.1 13.3 23 13.3 36.3V320zM528 384a48 48 0 1 0 -96 0 48 48 0 1 0 96 0zM160 432a48 48 0 1 0 0-96 48 48 0 1 0 0 96z"/></svg>

<svg xmlns="http://www.w3.org/2000/svg" viewBox="0 0 640 512"><!--! Font Awesome Pro 6.1.1 by @fontawesome - https://fontawesome.com License - https://fontawesome.com/license (Commercial License) Copyright 2022 Fonticons, Inc. --><path d="M640 320C640 355.3 611.3 384 576 384C576 437 533 480 480 480C426.1 480 384 437 384 384H256C256 437 213 480 160 480C106.1 480 64 437 64 384C28.65 384 0 355.3 0 320V96C0 60.65 28.65 32 64 32H465.2C481.6 32 497.2 39.21 507.9 51.73L626.7 191.5C635.3 201.6 640 214.5 640 227.8V320zM48 192H176V80H64C55.16 80 48 87.16 48 96V192zM48 240V320C48 328.8 55.16 336 64 336H76.84C93.44 307.3 124.5 288 160 288C195.5 288 226.6 307.3 243.2 336H396.8C413.4 307.3 444.5 288 480 288C515.5 288 546.6 307.3 563.2 336H576C584.8 336 592 328.8 592 320V240H48zM224 192H336V80H224V192zM384 192H564.1L471.3 82.82C469.8 81.03 467.5 80 465.2 80H384L384 192zM480 336C453.5 336 432 357.5 432 384C432 410.5 453.5 432 480 432C506.5 432 528 410.5 528 384C528 357.5 506.5 336 480 336zM160 432C186.5 432 208 410.5 208 384C208 357.5 186.5 336 160 336C133.5 336 112 357.5 112 384C112 410.5 133.5 432 160 432z"/></svg>
